icons/vscode-48.svg

<svg width="48" height="48" viewBox="0 0 48 48" fill="none" xmlns="http://www.w3.org/2000/svg">
<path d="M32.5902 41.7585C31.9704 42.0585 31.2699 42.0738 30.6555 41.8332C30.3486 41.7132 30.063 41.529 29.8199 41.2842L14.4485 27.188L7.75299 32.2968C7.12971 32.7723 6.25791 32.7333 5.67903 32.2041L3.53157 30.2406C2.8235 29.5931 2.82269 28.4734 3.52983 27.8249L9.33639 22.5L3.52983 17.1751C2.82269 16.5266 2.8235 15.4069 3.53157 14.7595L5.67903 12.7959C6.25791 12.2666 7.12971 12.2276 7.75299 12.7032L14.4485 17.812L29.8199 3.71565C29.9111 3.62391 30.0084 3.54069 30.1104 3.46614C30.8244 2.94429 31.7766 2.84789 32.5902 3.24144L40.6197 7.12521C41.4636 7.5333 42 8.39163 42 9.33327V24H32.256V13.6007L20.5926 22.5L32.256 31.3992V24H42V35.6667C42 36.6084 41.4633 37.4667 40.6197 37.875L32.5902 41.7585Z" fill="black"/>
</svg>

<svg xmlns="http://www.w3.org/2000/svg" width="48" height="48" viewBox="0 0 48 48"><path d="M32.59 41.758a2.41 2.41 0 0 1-2.77-.474L14.448 27.188l-6.695 5.109a1.618 1.618 0 0 1-2.074-.093l-2.147-1.963a1.64 1.64 0 0 1-.002-2.416L9.336 22.5 3.53 17.175a1.64 1.64 0 0 1 .002-2.416l2.147-1.963a1.618 1.618 0 0 1 2.074-.093l6.695 5.109L29.82 3.716a2.419 2.419 0 0 1 2.77-.475l8.03 3.884A2.451 2.451 0 0 1 42 9.333V24h-9.744V13.601L20.593 22.5l11.663 8.899V24H42v11.667c0 .941-.537 1.8-1.38 2.208l-8.03 3.883Z"/></svg>
